elementary-icon-theme/elementary/panel/22/gnome-do-symbolic.svg

<?xml version="1.0" encoding="UTF-8" standalone="no"?>
<!-- Created with Inkscape (http://www.inkscape.org/) -->

<svg
   xmlns:dc="http://purl.org/dc/elements/1.1/"
   xmlns:cc="http://creativecommons.org/ns#"
   xmlns:rdf="http://www.w3.org/1999/02/22-rdf-syntax-ns#"
   xmlns:svg="http://www.w3.org/2000/svg"
   xmlns="http://www.w3.org/2000/svg"
   xmlns:xlink="http://www.w3.org/1999/xlink"
   xmlns:sodipodi="http://sodipodi.sourceforge.net/DTD/sodipodi-0.dtd"
   xmlns:inkscape="http://www.inkscape.org/namespaces/inkscape"
   version="1.0"
   width="20"
   height="22"
   id="svg3239"
   inkscape:version="0.48.0 r9654"
   sodipodi:docname="gnome-do-symbolic.svg">
  <metadata
     id="metadata13">
    <rdf:RDF>
      <cc:Work
         rdf:about="">
        <dc:format>image/svg+xml</dc:format>
        <dc:type
           rdf:resource="http://purl.org/dc/dcmitype/StillImage" />
        <dc:title />
      </cc:Work>
    </rdf:RDF>
  </metadata>
  <sodipodi:namedview
     pagecolor="#ffffff"
     bordercolor="#666666"
     borderopacity="1"
     objecttolerance="10"
     gridtolerance="10"
     guidetolerance="10"
     inkscape:pageopacity="0"
     inkscape:pageshadow="2"
     inkscape:window-width="1072"
     inkscape:window-height="684"
     id="namedview11"
     showgrid="false"
     inkscape:zoom="13.227273"
     inkscape:cx="-2.1546389"
     inkscape:cy="12.587628"
     inkscape:window-x="0"
     inkscape:window-y="24"
     inkscape:window-maximized="0"
     inkscape:current-layer="svg3239" />
  <defs
     id="defs3241">
    <linearGradient
       id="linearGradient3587-6-5">
      <stop
         id="stop3589-9-2"
         style="stop-color:#000000;stop-opacity:1"
         offset="0" />
      <stop
         id="stop3591-7-4"
         style="stop-color:#363636;stop-opacity:1"
         offset="1" />
    </linearGradient>
    <linearGradient
       x1="32.361256"
       y1="4.561305"
       x2="32.361256"
       y2="18.561304"
       id="linearGradient3232"
       xlink:href="#linearGradient3587-6-5"
       gradientUnits="userSpaceOnUse"
       gradientTransform="translate(-21.361257,-0.561305)" />
  </defs>
  <g
     id="layer1"
     transform="translate(-1,0)">
    <path
       d="M 5,5 C 3.892,5 3,5.892 3,7 l 0,10 c 0,1.108 0.892,2 2,2 l 12,0 c 1.108,0 2,-0.892 2,-2 L 19,7 C 19,5.892 18.108,5 17,5 L 5,5 z m 6.5625,2 c 0.134251,0.023366 0.218751,0.1134665 0.21875,0.34375 l 0,1.46875 c 0.299919,0.077419 0.645256,0.22389 0.90625,0.375 L 13.75,8.21875 c 0.335981,-0.419071 0.585882,-0.122791 0.90625,0.25 0.300156,0.349272 0.450602,0.4555809 0.125,0.78125 l -0.9375,1.0625 c 0.158474,0.262819 0.295269,0.63367 0.375,0.9375 l 1.40625,0 c 0.460469,0 0.375,0.289435 0.375,0.75 0,0.460567 0.02297,0.78125 -0.4375,0.78125 l -1.34375,0 c -0.07988,0.305823 -0.216043,0.642624 -0.375,0.90625 l 1,1.0625 c 0.371282,0.325669 0.06958,0.528902 -0.25,0.875 -0.325838,0.352876 -0.571623,0.527051 -0.90625,0.15625 l -1,-0.9375 c -0.260993,0.151108 -0.606331,0.266331 -0.90625,0.34375 L 11.8125,16.625 C 11.8125,17.085566 11.460471,17 11,17 10.539528,17 10.25,17.05432 10.25,16.59375 L 10.28125,15.1875 C 9.981332,15.110081 9.60474,14.994858 9.34375,14.84375 l -1,0.96875 c -0.325603,0.325668 -0.5241113,0.07949 -0.875,-0.21875 -0.348898,-0.296545 -0.6153081,-0.53094 -0.25,-0.90625 l 0.9375,-1 C 7.997775,13.424679 7.8609797,13.085075 7.78125,12.78125 l -1.40625,0 c -0.460471,0 -0.34375,-0.320683 -0.34375,-0.78125 0,-0.460565 -0.1479719,-0.75 0.3125,-0.75 l 1.4375,0 c 0.079884,-0.305826 0.2160411,-0.673874 0.375,-0.9375 L 7.21875,9.28125 c -0.270911,-0.265716 -0.166449,-0.4111272 0.25,-0.8125 0.184284,-0.177613 0.2875367,-0.3124997 0.5,-0.3125 0.212465,0 0.2434474,-0.037836 0.40625,0.125 L 9.34375,9.1875 C 9.604741,9.03639 9.950082,8.8899171 10.25,8.8125 l 0,-1.4375 c 0,-0.460567 0.289528,-0.3437498 0.75,-0.34375 0.230236,0 0.428249,-0.054616 0.5625,-0.03125 z M 11,10.46875 c -0.847034,0 -1.53125,0.684042 -1.53125,1.53125 0,0.847208 0.684216,1.53125 1.53125,1.53125 0.847032,0 1.53125,-0.684042 1.53125,-1.53125 0,-0.847208 -0.684219,-1.53125 -1.53125,-1.53125 z"
       id="path3235"
       style="opacity:0.6;fill:#ffffff;fill-opacity:1;fill-rule:nonzero;stroke:none;stroke-width:1;marker:none;visibility:visible;display:inline;overflow:visible;enable-background:accumulate"
       inkscape:connector-curvature="0" />
    <path
       d="M 5,4 C 3.892,4 3,4.892 3,6 l 0,10 c 0,1.108 0.892,2 2,2 l 12,0 c 1.108,0 2,-0.892 2,-2 L 19,6 C 19,4.892 18.108,4 17,4 L 5,4 z m 6.5625,2 c 0.134251,0.023366 0.218751,0.1134665 0.21875,0.34375 l 0,1.46875 c 0.299919,0.077419 0.645256,0.2238897 0.90625,0.375 L 13.75,7.21875 c 0.335981,-0.419071 0.585882,-0.122791 0.90625,0.25 0.300156,0.349272 0.450602,0.4555809 0.125,0.78125 l -0.9375,1.0625 c 0.158474,0.262819 0.295269,0.63367 0.375,0.9375 l 1.40625,0 c 0.460469,0 0.375,0.289435 0.375,0.75 0,0.460567 0.02297,0.78125 -0.4375,0.78125 l -1.34375,0 c -0.07988,0.305823 -0.216043,0.642624 -0.375,0.90625 l 1,1.0625 c 0.371282,0.325669 0.06958,0.528902 -0.25,0.875 -0.325838,0.352876 -0.571623,0.527051 -0.90625,0.15625 l -1,-0.9375 c -0.260993,0.151108 -0.606331,0.266331 -0.90625,0.34375 L 11.8125,15.625 C 11.8125,16.085566 11.460471,16 11,16 10.539528,16 10.25,16.05432 10.25,15.59375 L 10.28125,14.1875 C 9.981332,14.110081 9.60474,13.994858 9.34375,13.84375 l -1,0.96875 c -0.325603,0.325668 -0.5241113,0.07949 -0.875,-0.21875 -0.348898,-0.296545 -0.6153081,-0.53094 -0.25,-0.90625 l 0.9375,-1 C 7.997775,12.424679 7.8609797,12.085075 7.78125,11.78125 l -1.40625,0 c -0.460471,0 -0.34375,-0.320683 -0.34375,-0.78125 0,-0.460565 -0.1479719,-0.75 0.3125,-0.75 l 1.4375,0 C 7.861134,9.944174 7.9972911,9.576126 8.15625,9.3125 L 7.21875,8.28125 c -0.270911,-0.265716 -0.166449,-0.4111272 0.25,-0.8125 0.184284,-0.177613 0.2875367,-0.3124997 0.5,-0.3125 0.212465,0 0.2434474,-0.037836 0.40625,0.125 L 9.34375,8.1875 C 9.604741,8.03639 9.950082,7.8899171 10.25,7.8125 l 0,-1.4375 c 0,-0.460567 0.289528,-0.3437498 0.75,-0.34375 0.230236,0 0.428249,-0.054616 0.5625,-0.03125 z M 11,9.46875 c -0.847034,0 -1.53125,0.684042 -1.53125,1.53125 0,0.847208 0.684216,1.53125 1.53125,1.53125 0.847032,0 1.53125,-0.684042 1.53125,-1.53125 0,-0.847208 -0.684219,-1.53125 -1.53125,-1.53125 z"
       id="rect2386"
       style="opacity:0.7;fill:url(#linearGradient3232);fill-opacity:1;fill-rule:nonzero;stroke:none;stroke-width:1;marker:none;visibility:visible;display:inline;overflow:visible;enable-background:accumulate"
       inkscape:connector-curvature="0" />
  </g>
</svg>

<?xml version="1.0" encoding="UTF-8" standalone="no"?>
<!-- Created with Inkscape (http://www.inkscape.org/) -->
<svg
   xmlns:svg="http://www.w3.org/2000/svg"
   xmlns="http://www.w3.org/2000/svg"
   xmlns:xlink="http://www.w3.org/1999/xlink"
   version="1.0"
   width="22"
   height="22"
   id="svg3239">
  <defs
     id="defs3241">
    <linearGradient
       id="linearGradient3587-6-5">
      <stop
         id="stop3589-9-2"
         style="stop-color:#000000;stop-opacity:1"
         offset="0" />
      <stop
         id="stop3591-7-4"
         style="stop-color:#363636;stop-opacity:1"
         offset="1" />
    </linearGradient>
    <linearGradient
       x1="32.361256"
       y1="4.561305"
       x2="32.361256"
       y2="18.561304"
       id="linearGradient3232"
       xlink:href="#linearGradient3587-6-5"
       gradientUnits="userSpaceOnUse"
       gradientTransform="translate(-21.361257,-0.561305)" />
  </defs>
  <g
     id="layer1">
    <path
       d="M 5,5 C 3.892,5 3,5.892 3,7 L 3,17 C 3,18.108 3.892,19 5,19 L 17,19 C 18.108,19 19,18.108 19,17 L 19,7 C 19,5.892 18.108,5 17,5 L 5,5 z M 11.5625,7 C 11.696751,7.0233656 11.781251,7.1134665 11.78125,7.34375 L 11.78125,8.8125 C 12.081169,8.889919 12.426506,9.03639 12.6875,9.1875 L 13.75,8.21875 C 14.085981,7.799679 14.335882,8.095959 14.65625,8.46875 C 14.956406,8.818022 15.106852,8.9243309 14.78125,9.25 L 13.84375,10.3125 C 14.002224,10.575319 14.139019,10.94617 14.21875,11.25 L 15.625,11.25 C 16.085469,11.25 16,11.539435 16,12 C 16,12.460567 16.02297,12.78125 15.5625,12.78125 L 14.21875,12.78125 C 14.138866,13.087073 14.002707,13.423874 13.84375,13.6875 L 14.84375,14.75 C 15.215032,15.075669 14.913331,15.278902 14.59375,15.625 C 14.267912,15.977876 14.022127,16.152051 13.6875,15.78125 L 12.6875,14.84375 C 12.426507,14.994858 12.081169,15.110081 11.78125,15.1875 L 11.8125,16.625 C 11.8125,17.085566 11.460471,17 11,17 C 10.539528,17 10.25,17.054317 10.25,16.59375 L 10.28125,15.1875 C 9.981332,15.110081 9.60474,14.994858 9.34375,14.84375 L 8.34375,15.8125 C 8.018147,16.138168 7.8196387,15.891989 7.46875,15.59375 C 7.119852,15.297205 6.8534419,15.06281 7.21875,14.6875 L 8.15625,13.6875 C 7.997775,13.424679 7.8609797,13.085075 7.78125,12.78125 L 6.375,12.78125 C 5.914529,12.78125 6.03125,12.460567 6.03125,12 C 6.03125,11.539435 5.8832781,11.25 6.34375,11.25 L 7.78125,11.25 C 7.861134,10.944174 7.9972911,10.576126 8.15625,10.3125 L 7.21875,9.28125 C 6.947839,9.015534 7.052301,8.8701228 7.46875,8.46875 C 7.653034,8.291137 7.7562867,8.1562503 7.96875,8.15625 C 8.181215,8.15625 8.2121974,8.118414 8.375,8.28125 L 9.34375,9.1875 C 9.604741,9.03639 9.950082,8.8899171 10.25,8.8125 L 10.25,7.375 C 10.25,6.914433 10.539528,7.0312502 11,7.03125 C 11.230236,7.03125 11.428249,6.9766344 11.5625,7 z M 11,10.46875 C 10.152966,10.46875 9.46875,11.152792 9.46875,12 C 9.46875,12.847208 10.152966,13.53125 11,13.53125 C 11.847032,13.53125 12.53125,12.847208 12.53125,12 C 12.53125,11.152792 11.847031,10.46875 11,10.46875 z"
       id="path3235"
       style="opacity:0.6;fill:#ffffff;fill-opacity:1;fill-rule:nonzero;stroke:none;stroke-width:1;stroke-linecap:square;stroke-linejoin:miter;marker:none;marker-start:none;marker-mid:none;marker-end:none;stroke-miterlimit:4;stroke-dasharray:none;stroke-dashoffset:0;stroke-opacity:1;visibility:visible;display:inline;overflow:visible;enable-background:accumulate" />
    <path
       d="M 5,4 C 3.892,4 3,4.892 3,6 L 3,16 C 3,17.108 3.892,18 5,18 L 17,18 C 18.108,18 19,17.108 19,16 L 19,6 C 19,4.892 18.108,4 17,4 L 5,4 z M 11.5625,6 C 11.696751,6.0233656 11.781251,6.1134665 11.78125,6.34375 L 11.78125,7.8125 C 12.081169,7.889919 12.426506,8.0363897 12.6875,8.1875 L 13.75,7.21875 C 14.085981,6.799679 14.335882,7.095959 14.65625,7.46875 C 14.956406,7.818022 15.106852,7.9243309 14.78125,8.25 L 13.84375,9.3125 C 14.002224,9.575319 14.139019,9.94617 14.21875,10.25 L 15.625,10.25 C 16.085469,10.25 16,10.539435 16,11 C 16,11.460567 16.02297,11.78125 15.5625,11.78125 L 14.21875,11.78125 C 14.138866,12.087073 14.002707,12.423874 13.84375,12.6875 L 14.84375,13.75 C 15.215032,14.075669 14.913331,14.278902 14.59375,14.625 C 14.267912,14.977876 14.022127,15.152051 13.6875,14.78125 L 12.6875,13.84375 C 12.426507,13.994858 12.081169,14.110081 11.78125,14.1875 L 11.8125,15.625 C 11.8125,16.085566 11.460471,16 11,16 C 10.539528,16 10.25,16.054317 10.25,15.59375 L 10.28125,14.1875 C 9.981332,14.110081 9.60474,13.994858 9.34375,13.84375 L 8.34375,14.8125 C 8.018147,15.138168 7.8196387,14.891989 7.46875,14.59375 C 7.119852,14.297205 6.8534419,14.06281 7.21875,13.6875 L 8.15625,12.6875 C 7.997775,12.424679 7.8609797,12.085075 7.78125,11.78125 L 6.375,11.78125 C 5.914529,11.78125 6.03125,11.460567 6.03125,11 C 6.03125,10.539435 5.8832781,10.25 6.34375,10.25 L 7.78125,10.25 C 7.861134,9.944174 7.9972911,9.576126 8.15625,9.3125 L 7.21875,8.28125 C 6.947839,8.015534 7.052301,7.8701228 7.46875,7.46875 C 7.653034,7.291137 7.7562867,7.1562503 7.96875,7.15625 C 8.181215,7.15625 8.2121974,7.118414 8.375,7.28125 L 9.34375,8.1875 C 9.604741,8.03639 9.950082,7.8899171 10.25,7.8125 L 10.25,6.375 C 10.25,5.914433 10.539528,6.0312502 11,6.03125 C 11.230236,6.03125 11.428249,5.9766344 11.5625,6 z M 11,9.46875 C 10.152966,9.46875 9.46875,10.152792 9.46875,11 C 9.46875,11.847208 10.152966,12.53125 11,12.53125 C 11.847032,12.53125 12.53125,11.847208 12.53125,11 C 12.53125,10.152792 11.847031,9.46875 11,9.46875 z"
       id="rect2386"
       style="opacity:0.7;fill:url(#linearGradient3232);fill-opacity:1;fill-rule:nonzero;stroke:none;stroke-width:1;stroke-linecap:square;stroke-linejoin:miter;marker:none;marker-start:none;marker-mid:none;marker-end:none;stroke-miterlimit:4;stroke-dasharray:none;stroke-dashoffset:0;stroke-opacity:1;visibility:visible;display:inline;overflow:visible;enable-background:accumulate" />
  </g>
</svg>
